packages/tokens/icons/touchpoint/size16Px.svg

<svg viewBox="0 0 16 16" fill="none" xmlns="http://www.w3.org/2000/svg" width="1em" height="1em"><path d="M5 7.26318V7.26318C4.17157 7.26318 3.5 7.93476 3.5 8.76318V10.7632C3.5 12.6962 5.067 14.2632 7 14.2632H9C10.933 14.2632 12.5 12.6962 12.5 10.7632V10.7632" stroke="currentColor"/><path d="M3.90135 5.76318C3.64609 5.32192 3.5 4.80961 3.5 4.26318C3.5 2.60633 4.84315 1.26318 6.5 1.26318C8.15685 1.26318 9.5 2.60633 9.5 4.26318C9.5 4.80961 9.35391 5.32192 9.09865 5.76318" stroke="currentColor" stroke-linecap="round"/><path d="M5 10.2632C5 10.5393 5.22386 10.7632 5.5 10.7632C5.77614 10.7632 6 10.5393 6 10.2632H5ZM7.5 7.26318H7C7 7.53933 7.22386 7.76318 7.5 7.76318L7.5 7.26318ZM6 10.2632L6 4.26318H5L5 10.2632H6ZM7 4.26318L7 7.26318H8V4.26318H7ZM12 9.26319V10.7632H13V9.26319H12ZM7.5 7.76318L10.5 7.76319L10.5 6.76319L7.5 6.76318L7.5 7.76318ZM13 9.26319C13 7.88248 11.8807 6.76319 10.5 6.76319L10.5 7.76319C11.3284 7.76319 12 8.43476 12 9.26319H13ZM8 4.26318C8 3.43476 7.32843 2.76318 6.5 2.76318V3.76318C6.77614 3.76318 7 3.98704 7 4.26318H8ZM6 4.26318C6 3.98704 6.22386 3.76318 6.5 3.76318V2.76318C5.67157 2.76318 5 3.43476 5 4.26318H6Z" fill="currentColor"/></svg>

<svg xmlns="http://www.w3.org/2000/svg" fill="none" viewBox="0 0 16 16" width="1em" height="1em"><path stroke="currentColor" d="M5 7.263a1.5 1.5 0 0 0-1.5 1.5v2a3.5 3.5 0 0 0 3.5 3.5h2a3.5 3.5 0 0 0 3.5-3.5"/><path stroke="currentColor" stroke-linecap="round" d="M3.901 5.763a3 3 0 1 1 5.197 0"/><path fill="currentColor" d="M5 10.263a.5.5 0 0 0 1 0H5Zm2.5-3H7a.5.5 0 0 0 .5.5v-.5Zm-1.5 3v-6H5v6h1Zm1-6v3h1v-3H7Zm5 5v1.5h1v-1.5h-1Zm-4.5-1.5h3v-1h-3v1Zm5.5 1.5a2.5 2.5 0 0 0-2.5-2.5v1a1.5 1.5 0 0 1 1.5 1.5h1Zm-5-5a1.5 1.5 0 0 0-1.5-1.5v1a.5.5 0 0 1 .5.5h1Zm-2 0a.5.5 0 0 1 .5-.5v-1a1.5 1.5 0 0 0-1.5 1.5h1Z"/></svg>
